X:1
T:The Silver Dagger
M:3/4
L:1/8
K:E
 EGB| c3 BG/2-B/2 G| F E2 EG B| c2- c/2c/2 B/2G/2 G/2 z/2 F| G3 GGA/2-G/2|\
 G3 GF E| C B,2 B,E E| G3 F E/2E/2 C| E3||

